static/img/emoji/svg/worried-face-of-black-emoticon.svg

<svg xmlns="http://www.w3.org/2000/svg" width="478.125" height="478.125" viewBox="0 0 478.125 478.125"><path d="M239.062 0C107.1 0 0 107.1 0 239.062c0 131.963 107.1 239.062 239.062 239.062 131.963 0 239.062-107.1 239.062-239.062C478.125 107.1 371.025 0 239.062 0zM114.75 114.75h76.5v19.125h-76.5V114.75zm19.125 76.5c0-11.475 7.65-19.125 19.125-19.125s19.125 7.65 19.125 19.125-7.65 19.125-19.125 19.125-19.125-7.65-19.125-19.125zm105.187 153c-57.375 0-86.062 19.125-86.062 19.125S172.125 306 239.062 306s86.062 57.375 86.062 57.375-28.686-19.125-86.062-19.125zm86.063-133.875c-11.475 0-19.125-7.65-19.125-19.125s7.65-19.125 19.125-19.125 19.125 7.65 19.125 19.125-7.65 19.125-19.125 19.125zm38.25-76.5h-76.5V114.75h76.5v19.125z"/></svg>

<?xml version="1.0" encoding="iso-8859-1"?>
<!-- Generator: Adobe Illustrator 16.0.0, SVG Export Plug-In . SVG Version: 6.00 Build 0)  -->
<!DOCTYPE svg PUBLIC "-//W3C//DTD SVG 1.1//EN" "http://www.w3.org/Graphics/SVG/1.1/DTD/svg11.dtd">
<svg version="1.1" id="Capa_1" xmlns="http://www.w3.org/2000/svg" xmlns:xlink="http://www.w3.org/1999/xlink" x="0px" y="0px"
	 width="478.125px" height="478.125px" viewBox="0 0 478.125 478.125" style="enable-background:new 0 0 478.125 478.125;"
	 xml:space="preserve">
<g>
	<path d="M239.062,0C107.1,0,0,107.1,0,239.062c0,131.963,107.1,239.062,239.062,239.062c131.963,0,239.062-107.1,239.062-239.062
		C478.125,107.1,371.025,0,239.062,0z M114.75,114.75h76.5v19.125h-76.5V114.75z M133.875,191.25
		c0-11.475,7.65-19.125,19.125-19.125s19.125,7.65,19.125,19.125s-7.65,19.125-19.125,19.125S133.875,202.725,133.875,191.25z
		 M239.062,344.25c-57.375,0-86.062,19.125-86.062,19.125S172.125,306,239.062,306s86.062,57.375,86.062,57.375
		S296.438,344.25,239.062,344.25z M325.125,210.375c-11.475,0-19.125-7.65-19.125-19.125s7.65-19.125,19.125-19.125
		s19.125,7.65,19.125,19.125S336.6,210.375,325.125,210.375z M363.375,133.875h-76.5V114.75h76.5V133.875z"/>
</g>
<g>
</g>
<g>
</g>
<g>
</g>
<g>
</g>
<g>
</g>
<g>
</g>
<g>
</g>
<g>
</g>
<g>
</g>
<g>
</g>
<g>
</g>
<g>
</g>
<g>
</g>
<g>
</g>
<g>
</g>
</svg>
